X:1
T: Windmill Bastion
C:Muriel A Johnstone
R:Jig
%Q:180
K:Gm
M:6/8
L:1/16
d2|:B2A2G2 B2A2G2|A4D2 D2^F2A2|d2c2B2 d2c2B2|A4F2 F2A2c2|
d4B2 F2d2B2|c4A2 F2c2A2|B2A2G2 A2D2^F2|G6 G4d2:|
g2^f2g2 d4=e2|f4F2 F2A2c2|d2c2B2 d2c2B2|c2B2A2 c2B2A2|B2A2G2 B2A2G2|^F2G2A2 D2d2c2|B2A2G2 A2D2^F2|G6 G4d2|
g2^f2g2 d4=e2|f4F2 F2A2c2|d2c2B2 f2d2B2|c2B2A2 f2c2A2|B2A2G2 g2d2B2|e2c2A2 ^F2d2c2|B2c2d2 d2g2^f2|g6 g4||
